svg/blobs-icons/no-decorations/jar.svg

<svg xmlns="http://www.w3.org/2000/svg" preserveAspectRatio="xMidYMid" width="130" height="218"><defs><style>.cls-5{fill:#142a3b}</style></defs><g id="group-154svg"><path d="M93.778 20.402H35.731L.009 51.658v139.695c0 14.094 11.427 25.52 25.52 25.52h78.452c14.093.0 25.518-11.426 25.518-25.52V51.658L93.778 20.402z" id="path-1" fill-rule="evenodd" style="fill:#e6191e"/><path d="M93.778 20.402H33.179l46.559 20.111c10.86 4.691 18.442 15.199 18.504 27.03l.001.229v110.185c0 14.094-11.425 25.52-25.519 25.52H3.07c4.315 7.976 12.753 13.396 22.459 13.396h78.451c14.094.0 25.519-11.426 25.519-25.52V51.658L93.778 20.402z" id="path-2" fill-rule="evenodd" style="fill:#010101;opacity:.25"/><path d="M42.911 105.427H6.765c-1.996.0-3.614-1.504-3.614-3.5.0-1.995 1.618-3.499 3.614-3.499h36.146c1.996.0 3.614 1.504 3.614 3.499.0 1.996-1.618 3.5-3.614 3.5z" id="path-3" class="cls-5" fill-rule="evenodd"/><path d="M42.911 155.426H6.765c-1.996.0-3.614-1.504-3.614-3.5s1.618-3.5 3.614-3.5h36.146c1.996.0 3.614 1.504 3.614 3.5s-1.618 3.5-3.614 3.5z" id="path-4" class="cls-5" fill-rule="evenodd"/><path d="M42.911 130.427H6.765c-1.996.0-3.614-1.504-3.614-3.5.0-1.997 1.618-3.501 3.614-3.501h36.146c1.996.0 3.614 1.504 3.614 3.501.0 1.996-1.618 3.5-3.614 3.5z" id="path-5" class="cls-5" fill-rule="evenodd"/><path d="M109.802 23.348H19.708a3.18 3.18.0 01-3.18-3.179V3.173a3.179 3.179.0 013.18-3.179h90.094a3.179 3.179.0 013.18 3.179v16.996a3.18 3.18.0 01-3.18 3.179z" id="path-6" fill-rule="evenodd" style="fill:#53c837"/><path d="M101.511.014c1.567 1.988 2.54 4.464 2.54 7.191.0 6.449-5.228 11.677-11.677 11.677h-73.1c-.07.0-.136-.019-.205-.02 2.137 2.712 5.413 4.486 9.135 4.486h73.1c6.45.0 11.677-5.229 11.677-11.678.0-6.378-5.118-11.543-11.47-11.656z" id="path-7" fill-rule="evenodd" style="fill:#010101;opacity:.35"/><path d="M22.211 84.583A5.421 5.421.0 0116.79 79.16V55.084l18.348-19.427a5.418 5.418.0 017.664-.219 5.419 5.419.0 01.219 7.662L27.634 59.395V79.16a5.422 5.422.0 01-5.423 5.423z" id="path-8" fill-rule="evenodd" style="fill:#fff"/></g></svg>

<svg xmlns="http://www.w3.org/2000/svg" xmlns:xlink="http://www.w3.org/1999/xlink" preserveAspectRatio="xMidYMid" width="130" height="218" viewBox="0 0 130 218"><defs><style>.cls-3{fill:#e6191e}.cls-4{fill:#010101;opacity:.25}.cls-5{fill:#142a3b}.cls-8{fill:#53c837}.cls-9{fill:#010101;opacity:.35}.cls-10{fill:#fff}</style></defs><g id="group-154svg"><path d="M93.778 20.402s-58.047.0-58.047.0S.009 51.658.009 51.658s0 48.093.0 48.093.0 91.602.0 91.602c0 14.094 11.427 25.52 25.52 25.52h78.452c14.093.0 25.518-11.426 25.518-25.52V51.658S93.778 20.402 93.778 20.402z" id="path-1" class="cls-3" fill-rule="evenodd"/><path d="M93.778 20.402s-60.599.0-60.599.0S79.738 40.513 79.738 40.513c10.86 4.691 18.442 15.199 18.504 27.03C98.243 67.62 98.243 67.696 98.243 67.772V177.957c0 14.094-11.425 25.52-25.519 25.52H3.07c4.315 7.976 12.753 13.396 22.459 13.396H103.98c14.094.0 25.519-11.426 25.519-25.52V51.658S93.778 20.402 93.778 20.402z" id="path-2" class="cls-4" fill-rule="evenodd"/><path d="M42.911 105.427s-36.146.0-36.146.0c-1.996.0-3.614-1.504-3.614-3.5C3.151 99.932 4.769 98.428 6.765 98.428H42.911C44.907 98.428 46.525 99.932 46.525 101.927c0 1.996-1.618 3.5-3.614 3.5z" id="path-3" class="cls-5" fill-rule="evenodd"/><path d="M42.911 155.426s-36.146.0-36.146.0C4.769 155.426 3.151 153.922 3.151 151.926c0-1.99599999999998 1.618-3.5 3.614-3.5H42.911c1.996.0 3.614 1.50400000000002 3.614 3.5.0 1.99600000000001-1.618 3.5-3.614 3.5z" id="path-4" class="cls-5" fill-rule="evenodd"/><path d="M42.911 130.427s-36.146.0-36.146.0C4.769 130.427 3.151 128.923 3.151 126.927c0-1.997 1.618-3.501 3.614-3.501H42.911c1.996.0 3.614 1.504 3.614 3.501C46.525 128.923 44.907 130.427 42.911 130.427z" id="path-5" class="cls-5" fill-rule="evenodd"/><path d="M109.802 23.348s-90.094.0-90.094.0c-1.757.0-3.18-1.424-3.18-3.179V3.173c0-1.756 1.423-3.179 3.18-3.179h90.094C111.559-.006 112.982 1.417 112.982 3.173V20.169C112.982 21.924 111.558 23.348 109.802 23.348z" id="path-6" class="cls-8" fill-rule="evenodd"/><path d="M101.511.014C103.078 2.002 104.051 4.478 104.051 7.205 104.051 13.654 98.823 18.882 92.374 18.882h-73.1C19.204 18.882 19.138 18.863 19.069 18.862c2.137 2.712 5.413 4.486 9.135 4.486h73.1c6.45.0 11.677-5.229 11.677-11.678.0-6.378-5.118-11.543-11.47-11.656z" id="path-7" class="cls-9" fill-rule="evenodd"/><path d="M22.211 84.583C19.217 84.583 16.79 82.156 16.79 79.16V55.084S35.138 35.657 35.138 35.657C37.193 33.481 40.625 33.377 42.802 35.438 44.98 37.492 45.076 40.925 43.021 43.1L27.634 59.395s0 19.765.0 19.765C27.634 82.156 25.207 84.583 22.211 84.583z" id="path-8" class="cls-10" fill-rule="evenodd"/></g></svg>
